fa/object-ungroup.svg

<svg xmlns="http://www.w3.org/2000/svg" viewBox="0 0 640 512" height="1em" width="1em">
  <path d="M32 119.4C12.87 108.4 0 87.69 0 64 0 28.65 28.65 0 64 0c23.69 0 44.4 12.87 55.4 32h209.2c11-19.13 31.7-32 55.4-32 35.3 0 64 28.65 64 64 0 23.69-12.9 44.4-32 55.4v113.2c19.1 11 32 31.7 32 55.4 0 35.3-28.7 64-64 64-23.7 0-44.4-12.9-55.4-32H119.4c-11 19.1-31.71 32-55.4 32-35.35 0-64-28.7-64-64 0-23.7 12.87-44.4 32-55.4V119.4zm64 0v113.2c9.7 5.6 17.8 13.7 23.4 23.4h209.2c5.6-9.7 13.7-17.8 23.4-23.4V119.4c-9.7-5.6-17.8-13.7-23.4-23.4H119.4c-5.6 9.7-13.7 17.8-23.4 23.4zM311.4 480c-11 19.1-31.7 32-55.4 32-35.3 0-64-28.7-64-64 0-23.7 12.9-44.4 32-55.4V352h64v40.6c9.7 5.6 17.8 13.7 23.4 23.4h209.2c5.6-9.7 13.7-17.8 23.4-23.4V279.4c-9.7-5.6-17.8-13.7-23.4-24.3h-46.1c-5.4-14.5-14.6-28-26.5-38.7v-25.3h72.6c11-18.2 31.7-32 55.4-32 35.3 0 64 29.6 64 64 0 24.6-12.9 45.3-32 56.3v113.2c19.1 11 32 31.7 32 55.4 0 35.3-28.7 64-64 64-23.7 0-44.4-12.9-55.4-32H311.4z"/>
</svg>

<svg xmlns="http://www.w3.org/2000/svg" viewBox="0 0 640 512" height="1em" width="1em">
  <path d="M32 119.4C12.87 108.4 0 87.69 0 64C0 28.65 28.65 0 64 0C87.69 0 108.4 12.87 119.4 32H328.6C339.6 12.87 360.3 0 384 0C419.3 0 448 28.65 448 64C448 87.69 435.1 108.4 416 119.4V232.6C435.1 243.6 448 264.3 448 288C448 323.3 419.3 352 384 352C360.3 352 339.6 339.1 328.6 320H119.4C108.4 339.1 87.69 352 64 352C28.65 352 0 323.3 0 288C0 264.3 12.87 243.6 32 232.6V119.4zM96 119.4V232.6C105.7 238.2 113.8 246.3 119.4 256H328.6C334.2 246.3 342.3 238.2 352 232.6V119.4C342.3 113.8 334.2 105.7 328.6 96H119.4C113.8 105.7 105.7 113.8 96 119.4V119.4zM311.4 480C300.4 499.1 279.7 512 256 512C220.7 512 192 483.3 192 448C192 424.3 204.9 403.6 224 392.6V352H288V392.6C297.7 398.2 305.8 406.3 311.4 416H520.6C526.2 406.3 534.3 398.2 544 392.6V279.4C534.3 273.8 526.2 265.7 520.6 255.1H474.5C469.1 240.6 459.9 227.1 448 216.4V191.1H520.6C531.6 172.9 552.3 159.1 576 159.1C611.3 159.1 640 188.7 640 223.1C640 247.7 627.1 268.4 608 279.4V392.6C627.1 403.6 640 424.3 640 448C640 483.3 611.3 512 576 512C552.3 512 531.6 499.1 520.6 480H311.4z"/>
</svg>
